archdroid-icon-theme/Archdroid-Cyan/actions/scalable/presence_offline.svg

<?xml version="1.0" encoding="UTF-8" standalone="no"?>
<svg
   xmlns:dc="http://purl.org/dc/elements/1.1/"
   xmlns:cc="http://creativecommons.org/ns#"
   xmlns:rdf="http://www.w3.org/1999/02/22-rdf-syntax-ns#"
   xmlns:svg="http://www.w3.org/2000/svg"
   xmlns="http://www.w3.org/2000/svg"
   xmlns:sodipodi="http://sodipodi.sourceforge.net/DTD/sodipodi-0.dtd"
   xmlns:inkscape="http://www.inkscape.org/namespaces/inkscape"
   fill="#00BCD4"
   width="48"
   height="48"
   viewBox="0 0 48 48"
   id="svg2"
   version="1.1"
   inkscape:version="0.91 r13725"
   sodipodi:docname="presence_offline.svg">
  <metadata
     id="metadata10">
    <rdf:RDF>
      <cc:Work
         rdf:about="">
        <dc:format>image/svg+xml</dc:format>
        <dc:type
           rdf:resource="http://purl.org/dc/dcmitype/StillImage" />
      </cc:Work>
    </rdf:RDF>
  </metadata>
  <defs
     id="defs8" />
  <sodipodi:namedview
     pagecolor="#ffffff"
     bordercolor="#666666"
     borderopacity="1"
     objecttolerance="10"
     gridtolerance="10"
     guidetolerance="10"
     inkscape:pageopacity="0"
     inkscape:pageshadow="2"
     inkscape:window-width="1366"
     inkscape:window-height="713"
     id="namedview6"
     showgrid="false"
     inkscape:snap-bbox="true"
     inkscape:bbox-nodes="true"
     inkscape:zoom="5.368001304915683"
     inkscape:cx="-3.340786890517883"
     inkscape:cy="5.695920213011927"
     inkscape:window-x="0"
     inkscape:window-y="30"
     inkscape:window-maximized="1"
     inkscape:current-layer="svg2" />
  <path
     style="fill:#00BCD4"
     d="M 10.301515190165,10 7.473088065418811,12.82842712474619 37.17157287525382,42.5269119345812 40,39.698484809835 10.30151519016502,10.00000000000002 Z"
     id="path4184"
     inkscape:connector-curvature="0" />
  <path
     d="M 24 8 C 20.83370931802622 8 18.10551995386185 9.840798388630487 16.80859375 12.5078125 L 27.490234375 23.189453125 C 30.15791403458181 21.89043508065109 32 19.15961305608091 32 16 C 32 11.58 28.42 8.000000000000002 24 8 z M 16.146484375 17.501953125 C 16.75825212118576 20.71050889547038 19.28622986717409 23.24449602629214 22.5 23.85546875 L 16.146484375 17.501953125 z M 24 28 C 18.67 28 8 30.67 8 36 L 8 40 L 38.64453125 40 L 26.849609375 28.205078125 C 25.8123001342663 28.07366879945916 24.83624490129922 28 24 28 z M 34.5390625 30.23828125 L 39.98046875 35.6796875 C 39.78739454542823 33.32027560655825 37.47906504924129 31.51057320728267 34.5390625 30.23828125 z M 40 39.69921875 L 39.69921875 40 L 40 40 L 40 39.69921875 z "
     id="path4" />
  <path
     style="fill:#00BCD4"
     inkscape:connector-curvature="0"
     d="m -25.21757979312737,43.03726390554566 c 2.21,0 4,-1.79 4,-4 l -8,0 c 0,2.21 1.79,4 4,4 z m 13,-23 c 0,-6.15 -4.27,-11.280000000000002 -10,-12.640000000000004 l 0,-1.359999999999998 c 0,-1.66 -1.34,-3.000000000000001 -3,-3.000000000000001 -1.66,0 -3,1.340000000000001 -3,3.000000000000001 l 0,1.359999999999998 c -1.02,0.24 -1.98,0.640000000000001 -2.89,1.109999999999999 l 18.89,18.890000000000004 0,-7.36 z m -0.54,17 4,4 2.539999999999999,-2.55 -33.450000000000009,-33.450000000000002 -2.54999999999999,2.55 5.84,5.840000000000002 c -1.16,1.93 -1.84,4.18999999999999 -1.84,6.61 l 0,11 -4,4 0,2 29.46,0 z"
     id="path4140" />
  <path
     style="fill:#00BCD4"
     d="m 36.42273609445432,-12.14305198203603 4,4 2.54,-2.54999999999999 -33.450000000000017,-33.45000000000001 -2.549999999999989,2.55 5.840000000000005,5.84 c -1.16,1.93 -1.84000000000001,4.19000000000001 -1.84000000000001,6.61 l 0,11 -3.999999999999996,4 0,2 29.460000000000007,0 z"
     id="path4158" />
  <rect
     style="opacity:1;fill:#000000;fill-opacity:1;fill-rule:nonzero;stroke:none;stroke-width:4.4010000229;stroke-miterlimit:4;stroke-dasharray:none;stroke-opacity:1"
     id="rect4166"
     width="4.005216598510742"
     height="34.55662536621094"
     x="1.210878968238831"
     y="-42.4433479309082" />
</svg>

<svg xmlns="http://www.w3.org/2000/svg" fill="#00BCD4" viewBox="0 0 48 48"><path d="m10.302 10l-2.828 2.828 29.698 29.698 2.828-2.828-29.698-29.698"/><path d="m24 8c-3.166 0-5.894 1.841-7.191 4.508l10.682 10.682c2.668-1.299 4.51-4.03 4.51-7.189 0-4.42-3.58-8-8-8m-7.854 9.502c.612 3.209 3.14 5.743 6.354 6.354l-6.354-6.354m7.854 10.498c-5.33 0-16 2.67-16 8v4h30.645l-11.795-11.795c-1.037-.131-2.01-.205-2.85-.205m10.539 2.238l5.441 5.441c-.193-2.359-2.501-4.169-5.441-5.441m5.461 9.461l-.301.301h.301v-.301"/></svg>
